dist/img/contacts/social/pinterest.svg

<svg width="20" height="24" viewBox="0 0 20 24" fill="none" xmlns="http://www.w3.org/2000/svg">
<path d="M10.326 0C3.74699 0.001 0.249992 4.216 0.249992 8.812C0.249992 10.943 1.44099 13.602 3.34799 14.445C3.89199 14.69 3.81999 14.391 4.28799 12.601C4.32499 12.452 4.30599 12.323 4.18599 12.184C1.45999 9.031 3.65399 2.549 9.93699 2.549C19.03 2.549 17.331 15.131 11.519 15.131C10.021 15.131 8.90499 13.955 9.25799 12.5C9.68599 10.767 10.524 8.904 10.524 7.655C10.524 4.507 5.83399 4.974 5.83399 9.145C5.83399 10.434 6.28999 11.304 6.28999 11.304C6.28999 11.304 4.78099 17.4 4.50099 18.539C4.02699 20.467 4.56499 23.588 4.61199 23.857C4.64099 24.005 4.80699 24.052 4.89999 23.93C5.04899 23.735 6.87299 21.133 7.38399 19.252C7.56999 18.567 8.33299 15.787 8.33299 15.787C8.83599 16.695 10.286 17.455 11.831 17.455C16.427 17.455 19.749 13.415 19.749 8.402C19.733 3.596 15.62 0 10.326 0V0Z" fill="white"/>
</svg>

<svg width="20" height="24" fill="none" xmlns="http://www.w3.org/2000/svg"><path d="M10.326 0C3.747.001.25 4.216.25 8.812c0 2.131 1.191 4.79 3.098 5.633.544.245.472-.054.94-1.844a.425.425 0 00-.102-.417C1.46 9.031 3.654 2.549 9.937 2.549c9.093 0 7.394 12.582 1.582 12.582-1.498 0-2.614-1.176-2.261-2.631.428-1.733 1.266-3.596 1.266-4.845 0-3.148-4.69-2.681-4.69 1.49 0 1.289.456 2.159.456 2.159S4.781 17.4 4.501 18.539c-.474 1.928.064 5.049.111 5.318.029.148.195.195.288.073.149-.195 1.973-2.797 2.484-4.678.186-.685.949-3.465.949-3.465.503.908 1.953 1.668 3.498 1.668 4.596 0 7.918-4.04 7.918-9.053C19.733 3.596 15.62 0 10.326 0z" fill="#fff"/></svg>
